assets/Mirror ball/Flat/mirror_ball_flat.svg

<svg width="32" height="32" viewBox="0 0 32 32" fill="none" xmlns="http://www.w3.org/2000/svg">
<path d="M17 5.18288C17 4.97097 17.1356 4.78573 17.3256 4.69197C18.0288 4.34506 18.5763 3.73079 18.8356 2.98189C19.0163 2.46 18.5523 2 18 2H14C13.4477 2 12.9837 2.46 13.1644 2.98189C13.4236 3.73079 13.9712 4.34506 14.6744 4.69197C14.8644 4.78573 15 4.97097 15 5.18288V6.2507C15 6.52684 15.2238 6.7507 15.5 6.7507H16.5C16.7761 6.7507 17 6.52684 17 6.2507V5.18288Z" fill="#321B41"/>
<path d="M10.056 28.2617C9.40813 27.8679 8.80049 27.4144 8.24072 26.909C8.02121 26.4607 7.8791 26.1601 7.82074 25.926C8.15862 25.9826 8.45923 26.0256 8.73418 26.0648C9.19287 26.1304 9.58011 26.1857 9.94979 26.277C9.60787 24.0054 9.25139 21.2139 9.2514 20.218C9.2514 20.218 14.3324 20.8737 16.3544 20.8736C16.3852 22.8116 16.4191 24.948 16.5246 26.9239C18.8829 26.8696 19.4575 26.7834 19.4575 26.7834C19.399 27.2784 19.2029 28.1509 19.0535 28.7162C19.9845 28.6128 20.8599 28.4529 21.8076 28.2275C21.7575 28.2591 21.8544 28.2734 21.9498 28.2875C22.0436 28.3013 22.136 28.315 22.0858 28.3446C20.3156 29.3883 18.5502 29.9989 16.14 29.9993C13.6689 29.9996 11.8575 29.3567 10.056 28.2617Z" fill="#71667D"/>
<path d="M10.8108 26.6229C10.8108 26.6229 10.8108 26.6229 10.8108 26.6229C10.3884 25.6659 10.0432 24.6279 9.78821 23.5283C10.6454 23.6593 11.5422 23.7651 12.4709 23.8431C12.5766 24.8821 12.7241 25.8718 12.9079 26.7971L12.916 26.8373C14.61 26.9675 16.2801 26.9973 16.2801 26.9973V29C15.09 29 13.9372 28.9323 12.8421 28.8056C12.5296 28.7694 12.2217 28.7284 11.919 28.6828C11.5077 28.05 11.1363 27.3605 10.8108 26.6229Z" fill="#62576E"/>
<path d="M6.22937 19.3289C6.14771 17.3472 6.57501 15.7036 6.57501 15.7036C6.57501 15.7036 8.02825 15.9982 9.4456 16.3838C9.33692 17.2312 9.28007 18.1056 9.28007 18.9996C9.28007 19.4289 9.29318 19.8537 9.31885 20.2732C8.17835 20.0159 7.13882 19.6973 6.22937 19.3289Z" fill="#898291"/>
<path d="M25.9716 19.9709C25.8435 22.1526 25.287 24.1969 24.3995 25.9902C23.6252 26.1646 22.756 26.3223 21.9347 26.4714L21.9276 26.4727C21.7837 26.4988 21.6413 26.5247 21.5012 26.5503C21.1681 27.3153 20.7858 28.0294 20.361 28.683C20.9405 28.5957 21.501 28.4915 22.0393 28.3718C23.1982 27.6955 24.2335 26.8306 25.1031 25.8191C26.2767 24.4541 27.1484 22.8223 27.615 21.0269C27.163 20.6477 26.6102 20.2936 25.9716 19.9709Z" fill="#898291"/>
<path d="M19.4725 26.8547C19.6448 26.1092 19.8033 24.8716 19.8957 23.7478C19.5239 23.7478 18.9581 23.7721 18.349 23.7982C17.6385 23.8287 16.869 23.8616 16.2801 23.8616V26.9999C17.3786 26.9999 18.4474 26.9497 19.4725 26.8547Z" fill="#898291"/>
<path d="M12.2851 20.6301C12.3026 21.7396 12.3663 22.8155 12.4709 23.8431C13.6917 23.9456 14.9674 23.9999 16.2801 23.9999V20.8864L12.2851 20.6301Z" fill="#898291"/>
<path d="M6.65167 22.8599C6.93184 24.0099 7.40368 25.3665 7.77573 26.0312C8.71545 26.2688 9.73273 26.4681 10.8108 26.6229C10.3735 25.6322 10.019 24.555 9.7617 23.4123C9.04653 23.3169 8.43906 23.1954 7.88115 23.0839C7.45074 22.9978 7.0498 22.9176 6.65167 22.8599Z" fill="#898291"/>
<path d="M9.28009 18.9996C9.28009 19.4288 9.29319 19.8535 9.31885 20.2729C10.2468 20.4822 11.2416 20.651 12.2876 20.773C12.2826 20.517 12.2801 20.2591 12.2801 19.9996C12.2801 18.88 12.327 17.7911 12.4157 16.7475C11.601 16.6226 10.0484 16.4092 9.44556 16.3843C9.33692 17.2315 9.28009 18.1058 9.28009 18.9996Z" fill="#998EA4"/>
<path d="M20.5053 28.6607C20.9272 28.077 21.5424 26.5328 21.5424 26.5328C21.5424 26.5328 20.0667 26.709 19.379 26.7625C19.2319 27.5077 19.0612 28.2113 18.8698 28.8655C19.4295 28.8121 19.9755 28.7435 20.5053 28.6607Z" fill="#998EA4"/>
<path d="M6.19771 19.3159C7.11469 19.6897 8.16509 20.0126 9.31885 20.2729C9.38795 21.402 9.54805 22.4926 9.78821 23.5284C8.66789 23.3572 7.61537 23.1431 6.64836 22.8922C6.34742 21.8691 6.10048 20.1274 6.19771 19.3159Z" fill="#998EA4"/>
<path d="M8.52822 27.1604C8.30372 26.7959 8.09386 26.4183 7.89965 26.0287C7.67519 25.9043 7.45423 25.8096 7.14758 25.7847C7.56989 26.2797 8.03174 26.7399 8.52822 27.1604Z" fill="#998EA4"/>
<path d="M4.28003 17.9998C4.28003 16.9483 4.41527 15.9284 4.66931 14.9565C4.71352 14.9751 4.75709 14.9934 4.80003 15.0114C5.58072 15.3392 6.15409 15.58 6.61008 15.7255C6.3943 16.7759 6.28003 17.8724 6.28003 19.0001C6.28003 19.1172 6.28126 19.2341 6.28372 19.3505C5.52194 19.0454 4.84999 18.7055 4.28469 18.3374C4.28159 18.2253 4.28003 18.1127 4.28003 17.9998Z" fill="#B4ACBC"/>
<path d="M12.2801 19.9998C12.2801 20.2592 12.2826 20.517 12.2876 20.773C13.5511 20.9204 14.8892 20.9997 16.2744 20.9999V23.9901C17.5868 23.9901 18.6047 23.9451 19.8092 23.8432C19.701 24.9064 19.5491 25.9179 19.3593 26.8616C20.1207 26.7977 20.86 26.7126 21.5723 26.608C22.3425 25.0993 22.5701 23.4634 22.5701 23.4634C22.5701 23.4634 21.3971 23.5577 19.9395 23.7224C20.1062 22.2968 20.0737 20.6646 20.0737 20.6646C20.0737 20.6646 17.552 20.9026 16.2801 20.9033V16.8751L12.4151 16.7548C12.3268 17.7962 12.2801 18.8827 12.2801 19.9998Z" fill="#B4ACBC"/>
<path d="M5.08173 22.3213C5.59033 23.6384 6.32461 24.8432 7.23714 25.8884C7.45958 25.9501 7.68687 26.0096 7.91874 26.0668C7.40357 25.0409 6.99714 23.9317 6.7179 22.7606C6.20312 22.6056 5.71903 22.4793 5.08173 22.3213Z" fill="#B4ACBC"/>
<path d="M6.52545 15.728C6.92792 14.0507 7.51846 12.5853 7.87933 11.8965C7.99898 11.9275 8.11209 11.957 8.21966 11.985C9.13464 12.2235 9.6489 12.3575 10.3758 12.4663C9.9367 13.6904 9.61716 15.022 9.44007 16.4274C8.37462 16.2353 7.39532 15.9997 6.52545 15.728Z" fill="#9B9B9B"/>
<path d="M25.0429 25.8883C25.9429 24.8576 26.6694 23.6716 27.1771 22.3757C26.6233 22.5642 26.209 22.6804 25.542 22.8443C25.2635 23.9845 24.8642 25.0653 24.3613 26.0667C24.5932 26.0096 24.8205 25.9501 25.0429 25.8883Z" fill="#9B9B9B"/>
<path d="M16 7.00012C17.2507 7.00012 18.4121 6.80876 19.3734 6.48141C18.3455 6.18737 17.2609 6.03003 16.14 6.03003C14.9649 6.03003 13.8298 6.20292 12.7581 6.52494C13.693 6.82566 14.8058 7.00012 16 7.00012Z" fill="#BEBEBE"/>
<path d="M6.38002 11.2163C5.5987 12.3544 5.00854 13.6339 4.65582 15.0087C5.22117 15.2788 5.87523 15.5281 6.60459 15.7524C6.8853 14.3737 7.34076 13.074 7.94217 11.8869C7.52939 11.7433 7.24506 11.6229 6.38002 11.2163Z" fill="#BEBEBE"/>
<path d="M9.44011 16.4271C9.61811 15.0146 9.94002 13.6766 10.3826 12.4473C11.3871 12.6005 12.0025 12.6854 12.9979 12.7682C12.7302 14.0081 12.5293 15.3736 12.4091 16.8256C11.3642 16.7292 10.3694 16.5947 9.44011 16.4271Z" fill="#BEBEBE"/>
<path d="M27.15 22.4445C27.6672 21.1482 27.9649 19.7406 27.9971 18.2676C27.5578 18.5802 26.405 19.1469 25.9977 19.2769C25.9768 20.5393 25.8126 21.7607 25.5233 22.92C26.0961 22.7739 26.6396 22.615 27.15 22.4445Z" fill="#BEBEBE"/>
<path d="M23.0149 20.167C23.0916 21.316 23.0191 21.9114 22.6524 23.3831C22.9888 23.3124 23.4093 23.242 23.8518 23.168C24.422 23.0726 25.0289 22.9711 25.5394 22.8548C25.261 23.9912 24.8626 25.0686 24.3612 26.067C23.4616 26.2889 22.4928 26.476 21.4693 26.623C21.8918 25.6658 22.237 24.6279 22.4919 23.5282C21.6347 23.6592 20.7379 23.765 19.8092 23.843C19.9134 22.8187 19.977 21.7465 19.9948 20.6409C20.844 20.5833 22.621 20.2683 23.0149 20.167Z" fill="#BEBEBE"/>
<path d="M6.2837 19.3506C5.52192 19.0455 4.84997 18.7056 4.28467 18.3375C4.32465 19.7852 4.62103 21.1689 5.13004 22.4447C5.64048 22.6152 6.18392 22.7741 6.75674 22.9202C6.47312 21.7834 6.30973 20.5869 6.2837 19.3506Z" fill="#BEBEBE"/>
<path d="M9.71957 9.13212C9.74652 9.102 9.77345 9.0719 9.80037 9.04175C10.2451 9.13257 10.5501 9.21521 10.8899 9.30732C11.1429 9.37589 11.4153 9.4497 11.7791 9.53603C11.2202 10.4334 10.7398 11.4385 10.3538 12.5278C9.40958 12.3628 8.56391 12.1596 7.84619 11.9261C8.51075 10.4832 9.12 9.80224 9.71957 9.13212Z" fill="#C9C9C9"/>
<path d="M12.9878 12.815C12.7252 14.0425 12.5278 15.392 12.4091 16.8259C13.6385 16.9393 14.9372 17.0001 16.2801 17.0001V12.8857C14.6926 12.8855 13.2701 12.8273 12.9878 12.815Z" fill="#C9C9C9"/>
<path d="M15.2664 6.97801C14.7967 7.6291 13.9697 9.30136 13.742 9.87907C14.5378 9.95689 15.3794 9.99905 16.25 10V13.0001C17.3868 13.0001 18.2548 12.9531 19.2661 12.8658L19.3063 13.1748C19.4508 14.2894 19.5781 15.2713 19.8417 16.6719C19.1224 16.7812 17.6171 16.8276 16.2801 16.8276V21.0001C17.6043 21.0001 18.8824 20.9168 20.0866 20.7621C20.0866 19.2069 20.0866 18.3413 19.9752 16.816C20.982 16.7204 21.9416 16.5893 22.84 16.4273C22.945 17.2611 23 18.1209 23 18.9996C23 19.4289 22.9869 19.8537 22.9612 20.2732C24.1135 20.0132 25.1626 19.6908 26.0787 19.3176C26.0787 18.1993 26.0787 17.1378 25.8001 15.5728L25.7143 15.5894C25.4758 14.0733 24.9373 12.9133 24.3989 11.8365L24.3672 11.8441C23.7839 10.6947 23.27 9.94737 22.4852 9.03745C21.8654 9.25124 20.9181 9.46493 20.5066 9.54488L20.5356 9.59178C19.8536 8.48478 19.0529 7.53944 18.1632 6.79932C17.7411 6.88092 17.296 6.93934 16.834 6.97146C17.4336 7.6338 17.9766 8.61135 18.4368 9.83119C18.2994 9.86242 17.8294 9.92609 16.2801 9.9269V6.997C16.1873 6.99913 16.0939 7.00021 16 7.00021C15.7516 7.00021 15.5068 6.99266 15.2664 6.97801ZM20.5356 9.59178C21.0603 10.4435 21.5148 11.391 21.8856 12.4142C21.6285 12.4463 21.4127 12.4756 21.2006 12.5043C20.7206 12.5694 20.2589 12.632 19.3777 12.7201C19.0825 11.391 18.6295 10.1744 18.517 9.88118C19.2304 9.81205 19.9073 9.71423 20.5356 9.59178Z" fill="#E6E6E6"/>
<path d="M18.9032 11.249C18.7654 10.7679 18.6165 10.3128 18.4576 9.8868C19.1929 9.81739 19.8898 9.71762 20.5355 9.5918C21.0796 10.475 21.5482 11.4611 21.9263 12.528C21.1177 12.6692 20.237 12.7825 19.3024 12.8626C19.56 14.0773 19.7538 15.4105 19.871 16.8259C18.6503 16.9393 17.6199 17.0001 16.2771 17.0001V12.999C17.3288 12.9919 18.3439 12.9448 19.3024 12.8626C19.2099 12.4264 19.1091 12.0054 19.0008 11.6014C18.9689 11.4825 18.9364 11.365 18.9032 11.249Z" fill="#F4F4F4"/>
<path d="M18.1632 6.79922C18.5927 6.71619 18.9983 6.60916 19.3734 6.48141C19.3557 6.47637 19.3381 6.47136 19.3204 6.46639C19.3211 6.4662 19.3218 6.46601 19.3225 6.46582C19.3704 6.47961 19.4183 6.49368 19.4659 6.50805C20.2085 6.95323 21.1633 7.52921 22.4644 9.03683C22.6062 8.97833 22.7426 8.93066 22.8743 8.88463C23.0927 8.8083 23.2983 8.73646 23.4943 8.6272C24.4386 9.38324 25.2662 10.279 25.9457 11.2832C25.5275 11.5238 24.9953 11.7469 24.3683 11.9471C23.843 10.8985 23.2043 9.93672 22.4717 9.08473C21.9006 9.28166 21.2494 9.4526 20.5355 9.59171C19.8535 8.48471 19.0529 7.53935 18.1632 6.79922Z" fill="#D3D3D3"/>
<path d="M13.0027 6.45435C13.0019 6.45411 13.0011 6.45386 13.0002 6.45361C12.9751 6.46074 12.9499 6.46831 12.9245 6.4763C12.9505 6.4689 12.9766 6.46158 13.0027 6.45435Z" fill="#D3D3D3"/>
<path d="M12.7714 6.52922C13.1732 6.65769 13.6076 6.7629 14.067 6.84102C13.1972 7.57481 12.4138 8.50543 11.7446 9.59168C11.0307 9.45257 10.3794 9.28163 9.80836 9.08469C9.07576 9.93667 8.43703 10.8984 7.91182 11.9471C7.28473 11.7468 6.75259 11.5238 6.33441 11.2831C7.01593 10.276 7.84642 9.37782 8.79425 8.62036L8.85433 8.64284C9.04999 8.71582 9.40374 8.84777 9.74429 9.01877C10.6657 7.87448 11.7853 6.89955 12.7714 6.52922Z" fill="#D3D3D3"/>
<path d="M19.871 16.8258C19.9554 17.8455 20 18.9079 20 19.9996C20 20.2591 19.9975 20.517 19.9925 20.773C21.0385 20.651 22.0333 20.4822 22.9612 20.2729C22.9869 19.8535 23 19.4287 23 18.9995C23 18.1208 22.9451 17.2611 22.84 16.4273C21.9107 16.5949 20.9159 16.7293 19.871 16.8258Z" fill="#D3D3D3"/>
<path d="M12.9777 12.8624C14.0202 12.9518 15.1295 13 16.2801 13V9.99857C16.1871 9.99952 16.0937 10 16 10C15.2459 10 14.5135 9.96909 13.8135 9.91085L13.8441 9.82903C12.6701 9.68743 11.9895 9.59049 11.7658 9.55762C11.2126 10.4496 10.7368 11.4474 10.3538 12.528C11.1624 12.6693 12.0432 12.7823 12.9777 12.8624Z" fill="#D3D3D3"/>
<path d="M22.4919 23.5284C22.732 22.4926 22.8921 21.402 22.9612 20.2729C24.0791 20.0207 25.0999 19.7098 25.9963 19.3507C25.9703 20.5869 25.8069 21.7833 25.5232 22.9201C24.5862 23.159 23.5704 23.3636 22.4919 23.5284Z" fill="#D3D3D3"/>
<path d="M12.898 6.48388C12.8988 6.48339 12.8996 6.48291 12.9004 6.48242C12.8605 6.49414 12.8205 6.50606 12.7807 6.51818C12.8197 6.50654 12.8588 6.49511 12.898 6.48388Z" fill="#DADADA"/>
<path d="M12.7583 6.52502C11.2845 6.9768 9.93139 7.70474 8.7594 8.64849C9.06827 8.80474 9.41978 8.95079 9.80842 9.08481C10.6841 8.06649 11.6938 7.20501 12.804 6.53957C12.7888 6.53475 12.7735 6.5299 12.7583 6.52502Z" fill="#DADADA"/>
<path d="M14.067 6.84102C13.1972 7.57481 12.4138 8.50543 11.7446 9.59168L11.6641 9.57589C12.3322 9.70921 13.0566 9.81449 13.8224 9.8868C14.2835 8.65053 14.829 7.65903 15.4322 6.98686C14.959 6.96465 14.5018 6.91496 14.067 6.84102Z" fill="#DADADA"/>
<path d="M16.2858 6.99677V10C17.1377 10 17.6867 9.96033 18.4576 9.88659C17.993 8.64089 17.4427 7.64372 16.8339 6.97137C16.6537 6.98391 16.4708 6.99243 16.2858 6.99677Z" fill="#DADADA"/>
<path d="M22.4717 9.08481C21.5707 8.03709 20.5279 7.1554 19.3796 6.48242C20.9087 6.93035 22.3111 7.67449 23.5207 8.64849C23.2118 8.80474 22.8603 8.95079 22.4717 9.08481Z" fill="#DADADA"/>
<path d="M25.6214 15.4976C25.343 14.2366 24.9178 13.0444 24.3683 11.9472C24.9954 11.7469 25.5275 11.5239 25.9457 11.2833C26.7044 12.4045 27.2785 13.6609 27.6243 15.0087C27.8696 15.9649 28 16.9673 28 18C28 18.1129 27.9985 18.2255 27.9954 18.3376C27.4301 18.7057 26.7581 19.0456 25.9964 19.3508C25.9988 19.2343 26 19.1174 26 19.0003C26 17.7907 25.8686 16.617 25.6214 15.4976Z" fill="#DADADA"/>
<path d="M20.3038 13.0842L18.0723 14.0405C17.6683 14.2137 17.6683 14.7865 18.0723 14.9596L20.3038 15.916C20.4291 15.9697 20.5271 16.0723 20.575 16.2L21.5318 18.7516C21.694 19.1842 22.3059 19.1842 22.4682 18.7516L23.425 16.2C23.4729 16.0723 23.5709 15.9697 23.6962 15.916L25.9277 14.9596C26.3317 14.7865 26.3317 14.2137 25.9277 14.0405L23.6962 13.0842C23.5709 13.0305 23.4729 12.9279 23.425 12.8002L22.4682 10.2485C22.3059 9.81593 21.694 9.81593 21.5318 10.2485L20.575 12.8002C20.5271 12.9279 20.4291 13.0305 20.3038 13.0842Z" fill="white"/>
</svg>

<svg xmlns="http://www.w3.org/2000/svg" width="32" height="32" fill="none"><path fill="#321B41" d="M17 5.183a.56.56 0 0 1 .326-.491 3.01 3.01 0 0 0 1.51-1.71C19.016 2.46 18.552 2 18 2h-4c-.552 0-1.016.46-.836.982.26.749.807 1.363 1.51 1.71a.56.56 0 0 1 .326.49v1.069a.5.5 0 0 0 .5.5h1a.5.5 0 0 0 .5-.5V5.183Z"/><path fill="#71667D" d="M10.056 28.262a12.046 12.046 0 0 1-1.815-1.353c-.22-.448-.362-.749-.42-.983.338.057.638.1.913.139.459.065.846.12 1.216.212-.342-2.272-.699-5.063-.699-6.059 0 0 5.081.656 7.103.656.031 1.938.065 4.074.17 6.05 2.359-.054 2.933-.14 2.933-.14-.058.494-.254 1.367-.404 1.932a22.27 22.27 0 0 0 2.755-.489c-.05.032.046.046.142.06.094.014.186.028.136.058-1.77 1.043-3.536 1.654-5.946 1.654-2.471 0-4.283-.642-6.084-1.737Z"/><path fill="#62576E" d="M10.81 26.623a17.414 17.414 0 0 1-1.022-3.095c.857.131 1.754.237 2.683.315.106 1.04.253 2.029.437 2.954l.008.04c1.694.13 3.364.16 3.364.16V29c-1.19 0-2.343-.068-3.438-.194-.312-.037-.62-.078-.923-.123a14.585 14.585 0 0 1-1.108-2.06Z"/><path fill="#898291" d="M6.23 19.329c-.082-1.982.345-3.625.345-3.625s1.453.294 2.87.68a20.573 20.573 0 0 0-.126 3.89 20.013 20.013 0 0 1-3.09-.945ZM25.972 19.97a15.638 15.638 0 0 1-1.573 6.02c-.774.175-1.643.332-2.464.481l-.007.002-.427.077c-.333.765-.715 1.48-1.14 2.133a24.67 24.67 0 0 0 1.678-.311 12.057 12.057 0 0 0 3.064-2.553 11.968 11.968 0 0 0 2.512-4.792 8.579 8.579 0 0 0-1.643-1.056ZM19.473 26.855c.172-.746.33-1.983.423-3.107-.372 0-.938.024-1.547.05-.71.03-1.48.064-2.069.064V27c1.099 0 2.167-.05 3.192-.145Z"/><path fill="#898291" d="M12.285 20.63c.018 1.11.081 2.186.186 3.213a45.63 45.63 0 0 0 3.81.157v-3.114l-3.996-.256ZM6.652 22.86c.28 1.15.752 2.506 1.124 3.171.94.238 1.957.437 3.035.592a17.454 17.454 0 0 1-1.05-3.21c-.714-.096-1.322-.218-1.88-.33-.43-.085-.831-.165-1.23-.223Z"/><path fill="#998EA4" d="M9.28 19c0 .429.013.854.039 1.273.928.21 1.923.378 2.969.5a39.614 39.614 0 0 1 .128-4.026c-.815-.124-2.368-.338-2.97-.363A20.573 20.573 0 0 0 9.28 19ZM20.505 28.66c.422-.583 1.037-2.127 1.037-2.127s-1.475.176-2.163.23a24.201 24.201 0 0 1-.51 2.102c.56-.053 1.107-.121 1.636-.204ZM6.198 19.316a19.96 19.96 0 0 0 3.12.957c.07 1.129.23 2.22.47 3.255a31.504 31.504 0 0 1-3.14-.636c-.3-1.023-.548-2.765-.45-3.576ZM8.528 27.16A14.454 14.454 0 0 1 7.9 26.03a1.755 1.755 0 0 0-.752-.244c.422.495.884.955 1.38 1.375Z"/><path fill="#B4ACBC" d="M4.28 18c0-1.052.135-2.072.39-3.043l.13.054c.78.328 1.354.569 1.81.715a16.27 16.27 0 0 0-.326 3.624 11.544 11.544 0 0 1-2-1.013A12.216 12.216 0 0 1 4.28 18ZM12.28 20c0 .26.003.517.008.773 1.263.147 2.601.227 3.986.227v2.99c1.313 0 2.33-.045 3.535-.147a31.57 31.57 0 0 1-.45 3.019c.762-.064 1.501-.15 2.213-.254.77-1.509.998-3.145.998-3.145s-1.173.095-2.63.26c.166-1.426.134-3.058.134-3.058s-2.522.238-3.794.238v-4.028l-3.865-.12A38.488 38.488 0 0 0 12.28 20ZM5.082 22.321a11.996 11.996 0 0 0 2.155 3.567c.223.062.45.122.682.179a15.25 15.25 0 0 1-1.201-3.306 33.047 33.047 0 0 0-1.636-.44Z"/><path fill="#9B9B9B" d="M6.525 15.728c.403-1.677.993-3.143 1.354-3.832l.34.089c.916.239 1.43.373 2.157.481a18.66 18.66 0 0 0-.936 3.961 24.318 24.318 0 0 1-2.915-.699ZM25.043 25.888c.9-1.03 1.626-2.216 2.134-3.512-.554.188-.968.304-1.635.468a15.237 15.237 0 0 1-1.18 3.223 23.8 23.8 0 0 0 .68-.179Z"/><path fill="#BEBEBE" d="M16 7c1.25 0 2.412-.191 3.373-.519a11.74 11.74 0 0 0-3.233-.451c-1.175 0-2.31.173-3.382.495.935.3 2.048.475 3.242.475ZM6.38 11.216a11.942 11.942 0 0 0-1.724 3.793c.565.27 1.22.52 1.949.743.28-1.378.736-2.678 1.337-3.865-.413-.144-.697-.264-1.562-.67ZM9.44 16.427c.178-1.412.5-2.75.943-3.98 1.004.154 1.62.238 2.615.321a31.753 31.753 0 0 0-.589 4.058 34.795 34.795 0 0 1-2.969-.399ZM27.15 22.445c.517-1.297.815-2.704.847-4.177-.44.312-1.592.879-2 1.009a16.148 16.148 0 0 1-.474 3.643 23.388 23.388 0 0 0 1.627-.476Z"/><path fill="#BEBEBE" d="M23.015 20.167c.077 1.149.004 1.744-.363 3.216.337-.07.757-.141 1.2-.215.57-.095 1.177-.197 1.687-.313a15.236 15.236 0 0 1-1.178 3.212c-.9.222-1.868.409-2.892.556.423-.957.768-1.995 1.023-3.095-.857.131-1.754.237-2.683.315.104-1.024.168-2.096.186-3.202.849-.058 2.626-.373 3.02-.474ZM6.284 19.35a11.544 11.544 0 0 1-2-1.013c.04 1.448.337 2.832.846 4.108.51.17 1.054.33 1.627.475a16.148 16.148 0 0 1-.473-3.57Z"/><path fill="#C9C9C9" d="m9.72 9.132.08-.09c.445.09.75.173 1.09.265.253.069.525.143.89.229a15.377 15.377 0 0 0-1.426 2.992 18.514 18.514 0 0 1-2.508-.602c.665-1.443 1.274-2.124 1.874-2.794ZM12.988 12.815a31.84 31.84 0 0 0-.579 4.01A42.28 42.28 0 0 0 16.28 17v-4.114c-1.587 0-3.01-.059-3.292-.071Z"/><path fill="#E6E6E6" d="M15.266 6.978c-.47.651-1.296 2.323-1.524 2.901.796.078 1.637.12 2.508.121v3a32.73 32.73 0 0 0 3.016-.134l.04.309c.145 1.114.272 2.096.536 3.497-.72.11-2.225.156-3.562.156V21c1.324 0 2.602-.083 3.807-.238 0-1.555 0-2.42-.112-3.946a34.657 34.657 0 0 0 2.865-.389 20.598 20.598 0 0 1 .121 3.846 19.966 19.966 0 0 0 3.118-.955c0-1.119 0-2.18-.279-3.745l-.086.016c-.238-1.516-.777-2.676-1.315-3.753l-.032.008a12.709 12.709 0 0 0-1.882-2.807c-.62.214-1.567.428-1.978.508l.029.047c-.682-1.107-1.483-2.053-2.373-2.793-.422.082-.867.14-1.329.172.6.663 1.143 1.64 1.603 2.86-.138.031-.608.095-2.157.096v-2.93a12.208 12.208 0 0 1-1.014-.019Zm5.27 2.614c.524.851.979 1.799 1.35 2.822-.258.032-.473.062-.685.09-.48.065-.942.128-1.823.216a21.736 21.736 0 0 0-.861-2.839c.713-.069 1.39-.167 2.019-.29Z"/><path fill="#F4F4F4" d="M18.903 11.249a18.41 18.41 0 0 0-.445-1.362c.735-.07 1.432-.17 2.078-.295.544.883 1.012 1.87 1.39 2.936-.808.141-1.689.255-2.624.335.258 1.214.452 2.548.569 3.963-1.22.113-2.251.174-3.594.174V13a38.584 38.584 0 0 0 3.025-.136 24.523 24.523 0 0 0-.399-1.614Z"/><path fill="#D3D3D3" d="M18.163 6.8a9.15 9.15 0 0 0 1.21-.319 15.02 15.02 0 0 0-.053-.015h.003l.143.042c.742.445 1.697 1.021 2.998 2.529.142-.059.279-.106.41-.152.219-.077.424-.149.62-.258a12.067 12.067 0 0 1 2.452 2.656c-.419.24-.95.464-1.578.664a14.017 14.017 0 0 0-1.896-2.862c-.571.197-1.223.368-1.937.507-.681-1.107-1.482-2.053-2.372-2.793ZM13.003 6.454H13a2.822 2.822 0 0 0 .003 0ZM12.771 6.53c.402.128.837.233 1.296.311-.87.734-1.653 1.664-2.322 2.75a14.48 14.48 0 0 1-1.937-.506 14.01 14.01 0 0 0-1.896 2.862c-.627-.2-1.16-.423-1.578-.664a12.069 12.069 0 0 1 2.46-2.663l.06.023c.196.073.55.205.89.376.922-1.145 2.041-2.12 3.027-2.49ZM19.871 16.826a38.551 38.551 0 0 1 .122 3.947c1.046-.122 2.04-.29 2.968-.5a20.823 20.823 0 0 0-.121-3.846c-.93.168-1.924.302-2.969.399Z"/><path fill="#D3D3D3" d="M12.978 12.862A38.81 38.81 0 0 0 16.28 13V9.999a27.426 27.426 0 0 1-2.467-.088l.031-.082a84.822 84.822 0 0 1-2.078-.271 15.4 15.4 0 0 0-1.412 2.97c.808.141 1.69.254 2.624.334ZM22.492 23.528c.24-1.035.4-2.126.47-3.255a20.118 20.118 0 0 0 3.034-.922 16.14 16.14 0 0 1-.473 3.57c-.937.238-1.953.443-3.031.607Z"/><path fill="#DADADA" d="m12.898 6.484.002-.002a12.63 12.63 0 0 0-.002.002ZM12.758 6.525A11.97 11.97 0 0 0 8.76 8.648c.31.157.66.303 1.05.437a12.319 12.319 0 0 1 2.995-2.545l-.046-.015ZM14.067 6.841c-.87.734-1.653 1.664-2.322 2.75l-.08-.015c.667.133 1.392.238 2.157.31.462-1.235 1.007-2.227 1.61-2.9-.473-.021-.93-.071-1.365-.145ZM16.286 6.997V10c.852 0 1.4-.04 2.172-.113-.465-1.246-1.015-2.243-1.624-2.916-.18.013-.363.021-.548.026ZM22.472 9.085a12.291 12.291 0 0 0-3.092-2.603 11.967 11.967 0 0 1 4.14 2.166c-.308.157-.66.303-1.048.437ZM25.621 15.498a15.29 15.29 0 0 0-1.253-3.55c.627-.201 1.16-.424 1.578-.665a11.94 11.94 0 0 1 2.05 7.055c-.566.368-1.238.708-2 1.013a16.24 16.24 0 0 0-.375-3.853Z"/><path fill="#fff" d="m20.304 13.084-2.232.957a.5.5 0 0 0 0 .919l2.232.956a.5.5 0 0 1 .271.284l.957 2.552a.5.5 0 0 0 .936 0l.957-2.552a.5.5 0 0 1 .271-.284l2.232-.956a.5.5 0 0 0 0-.92l-2.232-.956a.5.5 0 0 1-.271-.284l-.957-2.552a.5.5 0 0 0-.936 0l-.957 2.552a.5.5 0 0 1-.271.284Z"/></svg>
